X: 23
T: ONCE I LOVED A MAIDEN FAIRE
B: "FIFTY OLD ENGLISH FOLK DANCE AIRS", Edgar H. Hunt ed., Schott & Co. Ltd. pub., London 1939
Z: 2004-2014 John Chambers <jc:trillian.mit.edu>
M: 2/2
L: 1/4
K: D
|: ff f2 | ef d(c/d/) | ee ef | e2 d2 :|\
|: Bc d2 | ef d(c/d/) | ee ef | e2 d2 :|

%%sep 1 1 500
%%sep 1 1 500
